icons/linear-ele-symbol-refresh-right.svg

<svg xmlns="http://www.w3.org/2000/svg" width="32px" height="32px" viewBox="0 0 32 32" version="1.1">
    <title>linear-ele-symbol-refresh-right</title>
    <g id="linear-ele-symbol-refresh-right" stroke-width="1" fill-rule="evenodd">
        <path d="M25,4 C25.5522847,4 26,4.44771525 26,5 L26,9.5 C26,10.0522847 25.5522847,10.5 25,10.5 L20.5,10.5 C19.9477153,10.5 19.5,10.0522847 19.5,9.5 C19.5,8.94771525 19.9477153,8.5 20.5,8.5 L22.6155937,8.49987542 C20.8181877,6.91224779 18.4855079,6 16,6 C10.4771525,6 6,10.4771525 6,16 C6,21.5228475 10.4771525,26 16,26 C21.5228475,26 26,21.5228475 26,16 C26,15.4477153 26.4477153,15 27,15 C27.5522847,15 28,15.4477153 28,16 C28,22.627417 22.627417,28 16,28 C9.372583,28 4,22.627417 4,16 C4,9.372583 9.372583,4 16,4 C19.0103891,4 21.8362141,5.11684511 24.0010831,7.05556084 L24,5 C24,4.48716416 24.3860402,4.06449284 24.8833789,4.00672773 L25,4 Z" id="&#36335;&#24452;" fill-rule="nonzero" />
    </g>
</svg>

<svg xmlns="http://www.w3.org/2000/svg" viewBox="0 0 32 32"><path fill="currentColor" d="M25 4a1 1 0 0 1 1 1v4.5a1 1 0 0 1-1 1h-4.5a1 1 0 0 1 0-2h2.116A9.97 9.97 0 0 0 16 6C10.477 6 6 10.477 6 16s4.477 10 10 10 10-4.477 10-10a1 1 0 0 1 2 0c0 6.627-5.373 12-12 12S4 22.627 4 16 9.373 4 16 4c3.01 0 5.836 1.117 8.001 3.056L24 5a1 1 0 0 1 .883-.993z"/></svg>
